client/src/assets/images/menu/p2p.svg

<svg width="24px" height="24px" viewBox="0 0 24 24" version="1.1" xmlns="http://www.w3.org/2000/svg" xmlns:xlink="http://www.w3.org/1999/xlink">
  <defs/>
  <g stroke="none" stroke-width="1" fill="none" fill-rule="evenodd">
    <g transform="translate(-752.000000, -423.000000)" fill="#000000">
      <g transform="translate(752.000000, 423.000000)">
        <path d="M19.1632285,17.9958742 C20.7455119,17.9132011 22,16.5984601 22,14.9914698 L22,7.0085302 C22,5.35043647 20.6598453,4 19.0049107,4 L4.99508929,4 C3.33899222,4 2,5.34829734 2,7.0085302 L2,14.9914698 C2,16.5963573 3.25552676,17.9130154 4.83678095,17.9958629 L6.5,16 L4.99508929,16 C4.4481604,16 4,15.5484013 4,14.9914698 L4,7.0085302 C4,6.4497782 4.44667411,6 4.99508929,6 L19.0049107,6 C19.5518396,6 20,6.45159872 20,7.0085302 L20,14.9914698 C20,15.5502218 19.5533259,16 19.0049107,16 L17.5,16 L19.1632285,17.9958742 Z" fill-rule="nonzero"/>
        <polygon stroke="#000000" stroke-width="2" stroke-linejoin="round" points="12 14 17 20 7 20"/>
      </g>
    </g>
  </g>
</svg>

<svg xmlns="http://www.w3.org/2000/svg" viewBox="0 0 24 24">
  <defs/>
  <g fill="#000" fill-rule="evenodd">
    <path fill-rule="nonzero" d="M19.2 18a3 3 0 002.8-3V7a3 3 0 00-3-3H5a3 3 0 00-3 3v8a3 3 0 002.8 3l1.7-2H5a1 1 0 01-1-1V7c0-.6.4-1 1-1h14c.6 0 1 .5 1 1v8c0 .6-.4 1-1 1h-1.5l1.7 2z"/>
    <path stroke="#000" stroke-linejoin="round" stroke-width="2" d="M12 14l5 6H7z"/>
  </g>
</svg>
